X:48
T:Great Expectations
C:Ben Bolker
R:waltz
K:Dm
M:3/4
(Ad)e |: f3 (edc) | A2 D2 A2 | G2 (GA) ED | C3 (A,D)E | F2 G2 A2 | \
c2 d2 e2 | d2 c2 (GA) | A3 (Ad)e | f3 (ed)c | A2 D2 A2 | G2 (GA) ED | \
C4 (DE) | F2 G2 A2 | (c3d) cA | G2 A2 E2 |1 F3 (Ad)e :|2 D3 A,DE |: \
F2 A,2 DE | F2 B,2 DE | F2 C2 EF | D3 A,DE | F2 G2 A2 | c2 d2 e2 | d6 | \
A3 A,DE | F2 B,2 DE | F2 C2 EF | G2 GA GE | D3 FGA | c3 dcA | B3 cBG | \
A2 E2 (CD) | D6 :|
